X: 29412
T: Niel Gow's Compliments Returned To Mr Marshall
R: reel
M: 4/4
K: Amajor
A,AcA eAcA|A,A d/c/B/A/ GBB2|A,AcA eAcA|F/E/F/G/ ac EAA2:|
|:f>a e>a d>a ca|B/A/B/c/ d/c/B/A/ GBB2|1 f>a e>a d>a ca|B/A/B/c/ d/c/B/A/ EAA2:|
[2 CEA,A FA df|ed/c/ d/c/B/A/ EAA2||

